X:201
U: ~ = !turn!
%%topmargin 3cm
T:Strone Johnny
B:Traditional Irish Fiddle Tunes. Randy Miller and Jack Perron.
Z:Transcribed by Ralph Palmer
R:Reel
M:C|
L:1/8
K:D
Jd2 FB AFEF | D2 dc BABc | dF (3.F.F.F AF (3.F.F.F | GFEF Dgfe |
d2 FB AFEF | Dddc BABc | cF (3.F.F.F AF (3.F.F.F | GFEF D2 z2 ::
Jdefd egfe | A2 ((3cBA) eA ((3cBA) | defd Pe2 fg | abag fgfe |
defd egfe | A2 ((3cBA) eA ((3cBA) | defd Pe2 fg | abag fedc :|]
